flaticon/dialogue/chat-33.svg

<svg xmlns="http://www.w3.org/2000/svg" width="32" height="32" viewBox="0 0 24 24">
    <path d="M7.601562 9.800781L12 9.800781C12.222656 9.800781 12.398438 9.625 12.398438 9.402344 12.398438 9.179688 12.222656 9.003906 12 9.003906L7.601562 9.003906C7.378906 9.003906 7.199219 9.179688 7.199219 9.402344 7.199219 9.625 7.378906 9.800781 7.601562 9.800781zM14 11.800781L5.601562 11.800781C5.378906 11.800781 5.199219 11.980469 5.199219 12.203125 5.199219 12.421875 5.378906 12.601562 5.601562 12.601562L14 12.601562C14.222656 12.601562 14.398438 12.421875 14.398438 12.203125 14.398438 11.980469 14.222656 11.800781 14 11.800781zM14 14.601562L5.601562 14.601562C5.378906 14.601562 5.199219 14.78125 5.199219 15.003906 5.199219 15.222656 5.378906 15.402344 5.601562 15.402344L14 15.402344C14.222656 15.402344 14.398438 15.222656 14.398438 15.003906 14.398438 14.78125 14.222656 14.601562 14 14.601562zM14 14.601562"/>
    <path d="M 18.089844 0.199219 L 10.308594 0.199219 C 7.730469 0.199219 5.457031 1.882812 4.6875 4.328125 C 2.011719 4.890625 0 7.269531 0 10.109375 L 0 14.644531 C 0 17.738281 2.523438 20.371094 5.601562 20.585938 L 5.601562 23.175781 C 5.601562 23.445312 5.738281 23.671875 5.957031 23.761719 C 6.023438 23.789062 6.089844 23.804688 6.160156 23.804688 C 6.308594 23.804688 6.457031 23.738281 6.578125 23.617188 L 7.1875 23.011719 C 8.742188 21.453125 10.847656 20.597656 13.113281 20.597656 L 13.691406 20.597656 C 16.328125 20.597656 18.570312 18.84375 19.324219 16.4375 C 22.007812 15.816406 24 13.375 24 10.644531 L 24 6.109375 C 24 2.847656 21.347656 0.199219 18.089844 0.199219 Z M 13.691406 19.796875 L 13.113281 19.796875 C 10.632812 19.796875 8.328125 20.738281 6.621094 22.445312 L 6.398438 22.664062 L 6.398438 18.535156 C 6.398438 18.3125 6.222656 18.136719 6 18.136719 C 5.777344 18.136719 5.601562 18.3125 5.601562 18.535156 L 5.601562 19.777344 C 2.960938 19.566406 0.800781 17.304688 0.800781 14.644531 L 0.800781 10.109375 C 0.800781 7.652344 2.539062 5.597656 4.851562 5.109375 L 5.058594 5.074219 C 5.207031 5.050781 5.347656 5.03125 5.484375 5.019531 C 5.59375 5.011719 5.707031 5.003906 5.820312 5.003906 C 5.851562 5 5.882812 4.996094 5.910156 4.996094 L 13.691406 4.996094 C 16.507812 4.996094 18.800781 7.289062 18.800781 10.109375 L 18.800781 14.644531 C 18.800781 14.789062 18.789062 14.933594 18.777344 15.074219 C 18.773438 15.144531 18.765625 15.210938 18.757812 15.28125 C 18.753906 15.324219 18.742188 15.367188 18.738281 15.410156 C 18.707031 15.605469 18.667969 15.800781 18.613281 15.996094 L 18.554688 16.222656 C 17.890625 18.292969 15.960938 19.796875 13.691406 19.796875 Z M 23.199219 10.644531 C 23.199219 12.878906 21.65625 14.890625 19.527344 15.558594 C 19.53125 15.527344 19.53125 15.496094 19.539062 15.464844 C 19.550781 15.363281 19.566406 15.261719 19.574219 15.160156 C 19.589844 14.988281 19.601562 14.816406 19.601562 14.644531 L 19.601562 10.109375 C 19.601562 9.699219 19.558594 9.304688 19.480469 8.917969 C 18.925781 6.226562 16.542969 4.199219 13.691406 4.199219 L 5.910156 4.199219 C 5.902344 4.199219 5.894531 4.199219 5.886719 4.199219 C 5.785156 4.199219 5.679688 4.203125 5.570312 4.210938 C 6.335938 2.292969 8.207031 0.996094 10.308594 0.996094 L 18.089844 0.996094 C 20.90625 0.996094 23.199219 3.289062 23.199219 6.109375 Z M 23.199219 10.644531"/>
</svg>

<svg xmlns="http://www.w3.org/2000/svg" width="32" height="32" viewBox="0 0 24 24">
    <path d="M7.602 9.8H12a.395.395 0 0 0 .398-.398.395.395 0 0 0-.398-.398H7.602a.398.398 0 1 0 0 .797zm0 0M14 11.8H5.602a.401.401 0 0 0 0 .8l8.398.002c.223 0 .398-.18.398-.399a.398.398 0 0 0-.398-.402zm0 0M14 14.602H5.602a.401.401 0 0 0 0 .8H14c.223 0 .398-.18.398-.398a.398.398 0 0 0-.398-.402zm0 0"/>
    <path d="M18.09.2h-7.781a5.902 5.902 0 0 0-5.621 4.128A5.915 5.915 0 0 0 0 10.11v4.536c0 3.093 2.523 5.726 5.602 5.94v2.59c0 .27.136.497.355.587a.527.527 0 0 0 .203.043.597.597 0 0 0 .418-.188l.61-.605c1.554-1.559 3.66-2.414 5.925-2.414h.578c2.637 0 4.88-1.754 5.633-4.16C22.008 15.816 24 13.374 24 10.645V6.109A5.916 5.916 0 0 0 18.09.2zM13.69 19.796h-.578c-2.48 0-4.785.941-6.492 2.648l-.223.22v-4.13A.395.395 0 0 0 6 18.137a.395.395 0 0 0-.398.398v1.242C2.96 19.567.8 17.305.8 14.645v-4.536a5.115 5.115 0 0 1 4.05-5l.208-.035a4.722 4.722 0 0 1 .762-.07c.03-.004.062-.008.09-.008h7.78a5.117 5.117 0 0 1 5.11 5.113v4.536c0 .144-.012.289-.024.43-.004.07-.011.136-.02.206-.003.043-.015.086-.019.13-.031.194-.07.39-.125.585l-.058.227c-.664 2.07-2.594 3.574-4.864 3.574zm9.508-9.152c0 2.234-1.543 4.246-3.672 4.914.004-.032.004-.063.012-.094.012-.102.027-.203.035-.305.016-.172.028-.344.028-.515v-4.536a5.92 5.92 0 0 0-5.91-5.91H5.886c-.102 0-.207.004-.317.012A5.114 5.114 0 0 1 10.31.996h7.78A5.117 5.117 0 0 1 23.2 6.11zm0 0"/>
</svg>
